apps/nuxt3-ssr/assets/minified-icons/External link.svg

<svg viewBox="0 0 24 24" fill="none" xmlns="http://www.w3.org/2000/svg"><path d="M15 3.75C14.586 3.75 14.25 4.086 14.25 4.5C14.25 4.914 14.586 5.25 15 5.25H17.6895L11.4697 11.4697C11.1769 11.7626 11.1769 12.2374 11.4697 12.5303C11.6164 12.6769 11.808 12.75 12 12.75C12.192 12.75 12.3836 12.6769 12.5303 12.5303L18.75 6.31055V9C18.75 9.414 19.086 9.75 19.5 9.75C19.914 9.75 20.25 9.414 20.25 9V4.5C20.25 4.086 19.914 3.75 19.5 3.75H15ZM6.75 4.5C5.50912 4.5 4.5 5.50912 4.5 6.75V17.25C4.5 18.4909 5.50912 19.5 6.75 19.5H17.25C18.4909 19.5 19.5 18.4909 19.5 17.25V12.75C19.5 12.336 19.164 12 18.75 12C18.336 12 18 12.336 18 12.75V17.25C18 17.6636 17.6636 18 17.25 18H6.75C6.33637 18 6 17.6636 6 17.25V6.75C6 6.33637 6.33637 6 6.75 6H11.25C11.664 6 12 5.664 12 5.25C12 4.836 11.664 4.5 11.25 4.5H6.75Z" fill="currentColor"/></svg>

<svg fill="none" xmlns="http://www.w3.org/2000/svg" viewBox="0 0 24 24"><path d="M15 3.75a.75.75 0 0 0 0 1.5h2.69l-6.22 6.22a.75.75 0 0 0 1.06 1.06l6.22-6.22V9a.75.75 0 0 0 1.5 0V4.5a.75.75 0 0 0-.75-.75H15Zm-8.25.75C5.51 4.5 4.5 5.51 4.5 6.75v10.5c0 1.24 1.01 2.25 2.25 2.25h10.5c1.24 0 2.25-1.01 2.25-2.25v-4.5a.75.75 0 0 0-1.5 0v4.5a.75.75 0 0 1-.75.75H6.75a.75.75 0 0 1-.75-.75V6.75A.75.75 0 0 1 6.75 6h4.5a.75.75 0 0 0 0-1.5h-4.5Z" fill="currentColor"/></svg>
